X: 14189
T: Frost Is All Over, The
R: jig
M: 6/8
K: Dmajor
|:~f3 edc|dAF GFE|DFA dFA|~B3 efg|
fed edc|dA/A/F GFE|DFA dFA|B/c/dc ~d3:|
|:~f3 afd|g/a/bb bag|~f2 aaga|gfg ~e3|
~f3 afd|gg/g/g bag|fga efg|fdcd3:|

